X:431
T:J. Carnegie's March 
C:Joe Buchanan's Scottish Tome - Page 394.0
I:394 0
C:P.M. Hance-Gates
Z:Carl Allison
R:March
L:1/8
M:2/4
K:A
A/>B/ | c3 c/<e/A/>d/ | f/<a/d/>f/ e3 | f/>g/a/>f/ e/<f/A/>B/ | cB BA/>B/  |
c3 c/<e/A/>d/ | f/>a/d/>f/ e3 | f/>g/a/>f/ e/<f/A/>B/ | cA A :|
f/>g/ | a>f e>f | c/>B/A/>c/ e3 | f/>g/a/>f/ e/<f/A/>B/ | cB Bf/>g/ |
a>f e>f | c/>B/A/>c/ e3 | f/>g/a/>f/ e/<f/A/>B/ | cA  Af/>g/ |
a/f e>f | c/>B/A/>c/ e3 | f/>g/a/>f/ e/<f/A/>B/ | cB BA/>B/ |
c3 c/<e/A/>d/ | f/<a/d/>f/ e3 | f/>g/a/>f/ e/<f/A/>B/ | cA A |]
e/>c/ | AA/>e/ c/<e/A/>d/ | f/<a/d/>f/ e3  | f/>g/a/>f/ e/<f/A/>B/ | cB Be/>c/ |
AA/>e/ c/<e/A/>d/ | f/>a/d/>f/ e3 | f/>g/a/>f/ e/<f/A/>B/ | cA A :|
f/>g/ | aa/>f/ e/>f/e/>c/ | AA/>B/ cB/>A/ | f/>g/a/>f/ e/<f/A/>B/ | cB Bf/>g/ |
aa/>f/ e/>f/e/>c/ | AA/>B/ cB/>A/ | f/>g/a/>f/ e/<f/A/>B/ | cA Af/>g/ |
aa/>f/ e/>f/e/>c/ | AA/>B/ cB/>A/ | f/>g/a/>f/ e/<f/A/>B/ | cB BA/>B/ |
c3 c/<e/A/>d/ | f/>a/d/>f/ e3 | f/>g/a/>f/ e/<f/A/>B/ | cA A |]

